X:1
T:Title
%%score 1 2 3
L:1/8
M:3/2
K:C
V:1 treble nm="Part_1"
V:2 treble-8 nm="Part_2"
V:3 treble-8 nm="Part_3"
V:1
 z12 | A4 d4 d2 c2 | A4 z2 E4 D2 | F4 G2 F2 D4 | z2 G3 F G2 A4 | B2 A2 GF F2 E3 D | D4 z4 z4 | %7
 D4 G2 F2 A4 | B2 A3 G G4 F2 | G4 z4 E2 F2 | G4 E2 C4 G2 | A2 c2 B2 A3 GGF | A12 | z12 | %14
 E2 F4 G2 A4 | B6 A2 B2 c2- | c2 d2 B4 c2 d2 | c2 A2 G2 c4 B2 | c4 z4 B4 | c4 d6 c2 | %20
 A2 G2 B4 A2 G2- | GF E2 D4 F2 GA | B2 A3 G G2 F3 E |[M:4/2] G16 |] %24
V:2
[K:F] d4 g4 g2 f2 | d8 d4 | d4 c6 B2 | d4 B6 G2 | G4 z4 F4 | G2 A2 B2 c4 B2 | d4 B2 G2 A4 | %7
 G4 z2 D4 d2- | d2 c2 d2 B2 A4 | G8 c4 | e2 f2 g4 e2 c2- | c2 e2 d2 c2 B4 | A8 z4 | A2 B4 c2 d4 | %14
 c2 A2 B4 A4 | G4 d6 c2 | e2 f2 g8 | f4 e2 c2 d4 | c8 G4 | A4 G8 | F4 G8 | c4 B2 c2 d4 | %22
 d2 c4 B2 A4 |[M:4/2] G16 |] %24
V:3
[K:F] G8 G4 | z4 G2 F2 D4 | D4 A8 | D4 G8 | d3 c d2 e2 f3 e | d6 A4 G2 | z2 a3 g g2 f2 e2 | %7
 g6 a2 f4 | d2 e2 f2 d2 c c2 B | d4 g8 | c4 e3 f g4 | e2 c2 f2 e2 d3 c | e4 z4 e4 | %13
 c2 d3 fed f3 e | g2 a2 d4 e2 f2 | g3 e f3 gfe g2- | gf d2 G8 | d4 e4 f4 | g6 e2 d2 g2 | f2 e2 g8 | %20
 z4 d8 | z4 G2 FE D4 | G2 A2 F2 G2 D4 |[M:4/2] d16 |] %24

